src/22/mimetypes/text-x-c++hdr.svg

<svg xmlns="http://www.w3.org/2000/svg" height="22" width="22"><path d="M3 3v16h1v-5a3 3 0 0 1 3-3 3 3 0 0 1 3 3v5h1v-5a4 4 0 0 0-4-4 4 4 0 0 0-3 1.361V3H3zm7 0v2H8v1h2v2h1V6h2V5h-2V3h-1zm6 0v2h-2v1h2v2h1V6h2V5h-2V3h-1z" fill="#913d88"/></svg>

<?xml version="1.0" encoding="UTF-8" standalone="no"?>
<svg
   xmlns:dc="http://purl.org/dc/elements/1.1/"
   xmlns:cc="http://creativecommons.org/ns#"
   xmlns:rdf="http://www.w3.org/1999/02/22-rdf-syntax-ns#"
   xmlns:svg="http://www.w3.org/2000/svg"
   xmlns="http://www.w3.org/2000/svg"
   id="svg2"
   height="22"
   version="1.1"
   width="22">
  <defs
     id="defs3871" />
  <metadata
     id="metadata3874">
    <rdf:RDF>
      <cc:Work
         rdf:about="">
        <dc:format>image/svg+xml</dc:format>
        <dc:type
           rdf:resource="http://purl.org/dc/dcmitype/StillImage" />
        <dc:title></dc:title>
      </cc:Work>
    </rdf:RDF>
  </metadata>
    <path
       d="M 3 3 L 3 14 L 3 15.5 L 3 19 L 4 19 L 4 15.5 L 4 14 A 3 3 0 0 1 7 11 A 3 3 0 0 1 10 14 L 10 19 L 11 19 L 11 14 A 4 4 0 0 0 7 10 A 4 4 0 0 0 4 11.361328 L 4 11 L 4 10 L 4 3 L 3 3 z M 10 3 L 10 5 L 8 5 L 8 6 L 10 6 L 10 8 L 11 8 L 11 6 L 13 6 L 13 5 L 11 5 L 11 3 L 10 3 z M 16 3 L 16 5 L 14 5 L 14 6 L 16 6 L 16 8 L 17 8 L 17 6 L 19 6 L 19 5 L 17 5 L 17 3 L 16 3 z "
       style="fill:#913d88;fill-opacity:1" />
</svg>
